icon/gi/abstract-105.svg

<svg xmlns="http://www.w3.org/2000/svg" viewBox="0 0 512 512" height="1em" width="1em">
  <path d="M0 0h512v512H0z"/>
  <path fill="#fff" d="m256,11c-83.484,0-157.231,10.8258-202.8907,27.4094-26.5885,62.0598-42.1094,136.9446-42.1094,217.5906 0,55.1164 7.2716,107.4897 20.3656,154.9625 57.6344,15.2522 136.711,24.8062 224.4813,24.8062s167.1107-9.554 224.7874-24.8062c13.0493-47.4734 20.3657-99.845 20.3657-154.9625 0-80.6461-15.3679-155.5308-41.9563-217.5906-45.6596-16.5836-119.5598-27.4094-203.0437-27.4094zm.1533,62.3219c25.8452,0 46.7031,81.8135 46.7031,182.6781s-20.8579,125.5625-46.7031,125.5625-46.8563-24.6979-46.8563-125.5625 21.011-182.6781 46.8563-182.6781zm-128.1657,22.05c22.7258,0 41.0375,71.9377 41.0375,160.6281s-18.3117,103.3594-41.0375,103.3594-41.1906-14.669-41.1906-103.3594 18.4649-160.6281 41.1906-160.6281zm256.3313,0c22.7257,0 41.0375,71.9377 41.0375,160.6281s-18.3118,103.3594-41.0375,103.3594-41.1907-14.669-41.1907-103.3594 18.465-160.6281 41.1907-160.6281zm-347.7469,333.2c4.8955,15.5677 10.418,30.5696 16.5375,44.8656 45.6581,16.6316 119.3953,27.5625 202.8907,27.5625s157.3855-10.9309 203.0437-27.5625c6.1195-14.296 11.6545-29.298 16.5375-44.8656-52.9175,16.5242-131.646,27.1031-219.7343,27.1031-88.0113,0-166.3832-10.6037-219.2751-27.1031z"/>
</svg>

<svg xmlns="http://www.w3.org/2000/svg" viewBox="0 0 512 512"><path d="M0 0h512v512H0z"/><path fill="#fff" d="M256 11C172.516 11 98.769 21.826 53.11 38.41 26.52 100.47 11 175.353 11 256c0 55.116 7.271 107.49 20.365 154.963C89 426.214 168.077 435.768 255.847 435.768s167.11-9.554 224.787-24.807C493.684 363.49 501 311.117 501 256c0-80.646-15.368-155.53-41.956-217.59C413.384 21.825 339.484 11 256 11zm.153 62.322c25.845 0 46.703 81.813 46.703 182.678S282 381.563 256.153 381.563 209.297 356.865 209.297 256s21.011-182.678 46.856-182.678zm-128.165 22.05c22.725 0 41.037 71.938 41.037 160.628s-18.312 103.36-41.037 103.36S86.797 344.69 86.797 256s18.465-160.628 41.19-160.628zm256.33 0c22.727 0 41.038 71.938 41.038 160.628s-18.311 103.36-41.037 103.36-41.19-14.67-41.19-103.36 18.464-160.628 41.19-160.628zm-347.746 333.2c4.896 15.568 10.418 30.57 16.538 44.865C98.768 490.07 172.505 501 256 501s157.386-10.93 203.044-27.563c6.12-14.296 11.654-29.298 16.537-44.865-52.917 16.524-131.646 27.103-219.734 27.103-88.011 0-166.383-10.604-219.275-27.103z"/></svg>
